packages/crayons-core/src/components/icon/icon-assets/icons/attachment-forward.svg

<?xml version="1.0" encoding="UTF-8"?>
<svg width="16px" height="17px" viewBox="0 0 16 17" version="1.1" xmlns="http://www.w3.org/2000/svg" xmlns:xlink="http://www.w3.org/1999/xlink">
    <!-- Generator: Sketch 52.6 (67491) - http://www.bohemiancoding.com/sketch -->
    <title>icon/attachment-forward</title>
    <desc>Created with Sketch.</desc>
    <g id="Icons-✅" stroke="none" stroke-width="1" fill="none" fill-rule="evenodd">
        <g id="Icons" transform="translate(-654.000000, -2651.000000)" fill="currentColor">
            <g id="icon/attachment-forward" transform="translate(654.000000, 2652.000000)">
                <g id="attachment-forward" transform="translate(0.000000, -1.000000)">
                    <path d="M16,11.1 C16.0571029,11.2826913 16.0391112,11.4806009 15.95,11.65 C15.911794,11.7332241 15.8574038,11.8080106 15.79,11.87 L13.53,14.14 C13.3983207,14.2743397 13.2181133,14.3500269 13.03,14.35 C12.8446504,14.3507911 12.6672544,14.2747643 12.54,14.14 C12.4030356,14.0097469 12.3254997,13.8290108 12.3254997,13.64 C12.3254997,13.4509892 12.4030356,13.2702531 12.54,13.14 L13.61,12.07 L10.07,12.07 C9.36859837,12.07 8.8,12.6385984 8.8,13.34 L8.8,16.34 C8.79999998,16.7265993 8.48659931,17.04 8.1,17.04 C7.71340069,17.04 7.40000002,16.7265993 7.4,16.34 L7.4,13.34 C7.41094856,11.8715838 8.60155303,10.6854385 10.07,10.68 L13.6,10.68 L12.53,9.6 C12.3930356,9.46974694 12.3154997,9.28901085 12.3154997,9.1 C12.3154997,8.91098915 12.3930356,8.73025306 12.53,8.6 C12.8067978,8.32544444 13.2532022,8.32544444 13.53,8.6 L15.84,10.87 C15.9076836,10.9356167 15.9620175,11.0137216 16,11.1 Z M2.06,8.54 L2.07,8.54 C1.79385762,8.81614236 1.34614238,8.81614236 1.07000001,8.53999999 C0.793857643,8.26385762 0.793857637,7.81614238 1.07,7.54 L6.26,2.35 C7.57736418,0.996910601 9.58561467,0.581803117 11.3314717,1.30172147 C13.0773288,2.02163983 14.2092765,3.73163359 14.19,5.62 C14.187646,6.25257286 14.0584306,6.8782473 13.81,7.46 C13.5769112,7.35649783 13.3250273,7.30203645 13.07,7.3 C12.7165479,7.29423763 12.3690676,7.39153213 12.07,7.58 C13.0691867,6.30463798 12.9575269,4.48372392 11.81,3.34 C10.5323896,2.12602771 8.52761041,2.12602771 7.25,3.34 L2.06,8.54 Z M2,15 C2.74220062,15.7253729 3.92779938,15.7253729 4.67,15 L6.3,13.36 L6.3,15.36 L5.66,16 C5.04635698,16.6346534 4.20279054,16.9951518 3.32,17 C1.98552632,16.9859384 0.789183804,16.1741972 0.283030799,14.9393584 C-0.223122207,13.7045196 0.05931093,12.2866371 1,11.34 L7.75,4.56 C8.53424434,3.77575566 9.80575566,3.77575566 10.59,4.56 C11.3742443,5.34424434 11.3742443,6.61575566 10.59,7.4 L5.28,12.73 C5.00385763,13.0061424 4.55614237,13.0061424 4.28,12.73 C4.00385763,12.4538576 4.00385763,12.0061424 4.28,11.73 L9.6,6.41 C9.80667672,6.16793346 9.79249179,5.80764481 9.56742349,5.58257651 C9.34235519,5.35750821 8.98206654,5.34332328 8.74,5.55 L2,12.29 C1.63909012,12.6485482 1.43613335,13.1362636 1.43613335,13.645 C1.43613335,14.1537364 1.63909012,14.6414518 2,15 Z" id="Combined-Shape"></path>
                </g>
            </g>
        </g>
    </g>
</svg>

<svg viewBox="0 0 16 17"><path d="M16 11.1a.72.72 0 0 1-.05.55.69.69 0 0 1-.16.22l-2.26 2.27a.7.7 0 0 1-.5.21.67.67 0 0 1-.49-.21.69.69 0 0 1 0-1l1.07-1.07h-3.54a1.27 1.27 0 0 0-1.27 1.27v3a.7.7 0 0 1-1.4 0v-3a2.68 2.68 0 0 1 2.67-2.66h3.53L12.53 9.6a.69.69 0 0 1 0-1 .71.71 0 0 1 1 0l2.31 2.27a.73.73 0 0 1 .16.23zM2.06 8.54h.01a.707.707 0 0 1-1-1l5.19-5.19a4.62 4.62 0 0 1 7.93 3.27 4.73 4.73 0 0 1-.38 1.84 1.86 1.86 0 0 0-.74-.16 1.82 1.82 0 0 0-1 .28 3.2 3.2 0 0 0-.26-4.24 3.31 3.31 0 0 0-4.56 0l-5.19 5.2zM2 15a1.91 1.91 0 0 0 2.67 0l1.63-1.64v2l-.64.64a3.28 3.28 0 0 1-2.34 1A3.32 3.32 0 0 1 1 11.34l6.75-6.78a2.008 2.008 0 0 1 2.84 2.84l-5.31 5.33a.707.707 0 1 1-1-1L9.6 6.41a.61.61 0 0 0-.86-.86L2 12.29A1.91 1.91 0 0 0 2 15z" fill="currentColor" fill-rule="evenodd"/></svg>
